assets/features/local-deployment.svg

<?xml version="1.0" encoding="UTF-8"?>
<svg width="16px" height="16px" viewBox="0 0 16 16" version="1.1" xmlns="http://www.w3.org/2000/svg" xmlns:xlink="http://www.w3.org/1999/xlink">
    <!-- Generator: Sketch 49.2 (51160) - http://www.bohemiancoding.com/sketch -->
    <title>Local Deployment</title>
    <desc>Created with Sketch.</desc>
    <defs></defs>
    <g id="local-16px" stroke="none" stroke-width="1" fill="none" fill-rule="evenodd">
        <path d="M14.5,1.53125 L9.90625,1.53125 L9.90625,5.1875 L9.4375,5.1875 L9.4375,1.4890625 C9.4375,1.25347854 9.62847854,1.0625 9.8640625,1.0625 L14.5421875,1.0625 C14.7777715,1.0625 14.96875,1.25347854 14.96875,1.4890625 L14.96875,11.5421875 C14.96875,11.7777715 14.7777715,11.96875 14.5421875,11.96875 L10.9396973,11.96875 L10.9396973,11.5 L14.5,11.5 L14.5,1.53125 Z M12.96875,8.82657323 C12.96875,8.4610816 13.2635048,8.16479208 13.6271034,8.16479208 C13.9907019,8.16479208 14.2854567,8.4610816 14.2854567,8.82657323 C14.2854567,9.19206487 13.9907019,9.48835438 13.6271034,9.48835438 C13.2635048,9.48835438 12.96875,9.19206487 12.96875,8.82657323 Z M10.7139423,2.55943627 L13.6923077,2.55943627 L13.6923077,3.62867647 L10.7139423,3.62867647 L10.7139423,2.55943627 Z M11.0576923,3.28492647 L13.3485577,3.28492647 L13.3485577,2.90318627 L11.0576923,2.90318627 L11.0576923,3.28492647 Z M7.265625,14.5108696 L8.99398916,14.5108696 C9.11178114,14.5108696 9.20727041,14.6063588 9.20727041,14.7241508 L9.20727041,14.7663383 C9.20727041,14.8841303 9.11178114,14.9796196 8.99398916,14.9796196 L3.4384088,14.9796196 C3.32061682,14.9796196 3.22512755,14.8841303 3.22512755,14.7663383 L3.22512755,14.7241508 C3.22512755,14.6063588 3.32061682,14.5108696 3.4384088,14.5108696 L5.171875,14.5108696 L5.171875,13.484375 L1.5,13.484375 C1.28426377,13.484375 1.109375,13.3094862 1.109375,13.09375 L1.109375,5.25 C1.109375,5.03426377 1.28426377,4.859375 1.5,4.859375 L10.71875,4.859375 C10.9344862,4.859375 11.109375,5.03426377 11.109375,5.25 L11.109375,13.09375 C11.109375,13.3094862 10.9344862,13.484375 10.71875,13.484375 L7.265625,13.484375 L7.265625,14.5108696 Z M5.640625,13.484375 L5.640625,14.5027174 L6.796875,14.5027174 L6.796875,13.484375 L5.640625,13.484375 Z M1.578125,5.328125 L1.578125,13.015625 L10.640625,13.015625 L10.640625,5.328125 L1.578125,5.328125 Z M2.15652105,11.5557065 L10.062229,11.5557065 C10.1800209,11.5557065 10.2755102,11.6511958 10.2755102,11.7689878 L10.2755102,11.8111753 C10.2755102,11.9289673 10.1800209,12.0244565 10.062229,12.0244565 L2.15652105,12.0244565 C2.03872906,12.0244565 1.9432398,11.9289673 1.9432398,11.8111753 L1.9432398,11.7689878 C1.9432398,11.6511958 2.03872906,11.5557065 2.15652105,11.5557065 Z" id="Combined-Shape" fill="#689BFF" fill-rule="nonzero"></path>
    </g>
</svg>

<?xml version="1.0" encoding="UTF-8" standalone="no"?>
<svg
   xmlns:dc="http://purl.org/dc/elements/1.1/"
   xmlns:cc="http://creativecommons.org/ns#"
   xmlns:rdf="http://www.w3.org/1999/02/22-rdf-syntax-ns#"
   xmlns:svg="http://www.w3.org/2000/svg"
   xmlns="http://www.w3.org/2000/svg"
   xmlns:sodipodi="http://sodipodi.sourceforge.net/DTD/sodipodi-0.dtd"
   xmlns:inkscape="http://www.inkscape.org/namespaces/inkscape"
   width="16px"
   height="16px"
   viewBox="0 0 16 16"
   version="1.1"
   id="svg10"
   sodipodi:docname="local-deployment.svg"
   inkscape:version="0.92.3 (2405546, 2018-03-11)">
  <metadata
     id="metadata14">
    <rdf:RDF>
      <cc:Work
         rdf:about="">
        <dc:format>image/svg+xml</dc:format>
        <dc:type
           rdf:resource="http://purl.org/dc/dcmitype/StillImage" />
      </cc:Work>
    </rdf:RDF>
  </metadata>
  <sodipodi:namedview
     pagecolor="#ffffff"
     bordercolor="#666666"
     borderopacity="1"
     objecttolerance="10"
     gridtolerance="10"
     guidetolerance="10"
     inkscape:pageopacity="0"
     inkscape:pageshadow="2"
     inkscape:window-width="2560"
     inkscape:window-height="1346"
     id="namedview12"
     showgrid="false"
     inkscape:zoom="14.75"
     inkscape:cx="8"
     inkscape:cy="8"
     inkscape:window-x="-11"
     inkscape:window-y="-11"
     inkscape:window-maximized="1"
     inkscape:current-layer="svg10" />
  <!-- Generator: Sketch 49.2 (51160) - http://www.bohemiancoding.com/sketch -->
  <title
     id="title2">Local Deployment</title>
  <desc
     id="desc4">Created with Sketch.</desc>
  <defs
     id="defs6" />
  <g
     id="local-16px"
     transform="matrix(1.1544532,0,0,1.1544532,-1.2807214,-1.2599401)"
     style="fill:none;fill-rule:evenodd;stroke:none;stroke-width:1">
    <path
       d="M 14.5,1.53125 H 9.90625 V 5.1875 H 9.4375 V 1.4890625 C 9.4375,1.2534785 9.6284785,1.0625 9.8640625,1.0625 h 4.6781255 c 0.235584,0 0.426562,0.1909785 0.426562,0.4265625 V 11.542188 c 0,0.235584 -0.190978,0.426562 -0.426562,0.426562 H 10.939697 V 11.5 H 14.5 Z m -1.53125,7.2953232 c 0,-0.3654916 0.294755,-0.6617811 0.658353,-0.6617811 0.363599,0 0.658354,0.2962895 0.658354,0.6617811 0,0.3654917 -0.294755,0.6617812 -0.658354,0.6617812 -0.363598,0 -0.658353,-0.2962895 -0.658353,-0.6617812 z M 10.713942,2.5594363 h 2.978366 v 1.0692402 h -2.978366 z m 0.34375,0.7254902 h 2.290866 V 2.9031863 H 11.057692 Z M 7.265625,14.51087 h 1.7283642 c 0.1177919,0 0.2132812,0.09549 0.2132812,0.213281 v 0.04219 c 0,0.117792 -0.095489,0.213282 -0.2132812,0.213282 H 3.4384088 c -0.117792,0 -0.2132813,-0.09549 -0.2132813,-0.213282 v -0.04219 c 0,-0.117792 0.095489,-0.213281 0.2132813,-0.213281 H 5.171875 V 13.484375 H 1.5 c -0.2157362,0 -0.390625,-0.174889 -0.390625,-0.390625 V 5.25 C 1.109375,5.0342638 1.2842638,4.859375 1.5,4.859375 h 9.21875 c 0.215736,0 0.390625,0.1748888 0.390625,0.390625 v 7.84375 c 0,0.215736 -0.174889,0.390625 -0.390625,0.390625 H 7.265625 Z m -1.625,-1.026495 v 1.018342 h 1.15625 v -1.018342 z m -4.0625,-8.15625 v 7.6875 h 9.0625 v -7.6875 z m 0.578396,6.227581 h 7.905708 c 0.117792,0 0.213281,0.09549 0.213281,0.213282 v 0.04219 c 0,0.117792 -0.09549,0.213281 -0.213281,0.213281 H 2.156521 c -0.1177919,0 -0.2132812,-0.09549 -0.2132812,-0.213281 v -0.04219 c 0,-0.117792 0.095489,-0.213282 0.2132812,-0.213282 z"
       id="Combined-Shape"
       inkscape:connector-curvature="0"
       style="fill:#689bff;fill-rule:nonzero" />
  </g>
</svg>
